X:2
T:Chicken Reel [1]
M:C|
L:1/8
K:D
(=f|^f)dAF DFBF|AABF A3 (=f|^f)dAF DFBB|Addc d4:|\
|:a>faf d3d|f2f2 e4|afaf dcBA|Addc d4:|

